flaticon/gastronomy/pie-1.svg

<svg xmlns="http://www.w3.org/2000/svg" width="32" height="32" viewBox="0 0 24 24">
    <path d="M8.570312 8.410156C8.378906 8.269531 8.113281 8.308594 7.976562 8.496094L6.964844 9.863281C6.824219 10.050781 6.863281 10.316406 7.054688 10.457031L8.417969 11.46875C8.492188 11.523438 8.582031 11.550781 8.671875 11.550781 8.691406 11.550781 8.714844 11.546875 8.734375 11.546875 8.84375 11.527344 8.945312 11.46875 9.011719 11.378906L10.023438 10.011719C10.164062 9.824219 10.121094 9.558594 9.933594 9.417969zM8.582031 10.53125L7.898438 10.027344 8.40625 9.34375 9.085938 9.847656zM21.378906 9.617188L19.714844 9.285156C19.484375 9.238281 19.261719 9.386719 19.214844 9.617188L18.882812 11.285156C18.835938 11.515625 18.984375 11.738281 19.214844 11.785156L20.882812 12.117188C20.910156 12.121094 20.9375 12.125 20.964844 12.125 21.164062 12.125 21.339844 11.984375 21.378906 11.785156L21.714844 10.117188C21.757812 9.886719 21.609375 9.664062 21.378906 9.617188zM20.632812 11.199219L19.796875 11.035156 19.964844 10.203125 20.796875 10.367188zM16.371094 10.386719C16.304688 10.160156 16.070312 10.027344 15.84375 10.09375L14.210938 10.554688C13.984375 10.617188 13.851562 10.855469 13.917969 11.078125L14.378906 12.714844C14.433594 12.902344 14.601562 13.023438 14.789062 13.023438 14.824219 13.023438 14.863281 13.019531 14.902344 13.007812L16.539062 12.546875C16.765625 12.484375 16.894531 12.246094 16.832031 12.023438zM15.082031 12.074219L14.851562 11.257812 15.667969 11.027344 15.898438 11.84375zM15.082031 12.074219"/>
    <path d="M 24 11.570312 C 24 10.949219 23.636719 10.394531 22.921875 9.917969 C 22.929688 9.851562 22.933594 9.789062 22.933594 9.726562 C 22.933594 8.4375 21.882812 7.390625 20.597656 7.390625 C 20.242188 7.390625 19.902344 7.46875 19.585938 7.625 C 19.164062 6.960938 18.425781 6.539062 17.625 6.539062 C 17.179688 6.539062 16.753906 6.664062 16.386719 6.898438 C 15.988281 6.457031 15.4375 6.175781 14.84375 6.125 L 13.792969 4.871094 C 13.71875 4.785156 13.613281 4.730469 13.503906 4.722656 C 13.433594 4.714844 13.367188 4.730469 13.308594 4.753906 C 13.265625 4.773438 13.226562 4.792969 13.191406 4.820312 L 12.433594 5.460938 L 12.140625 5.707031 C 12.054688 5.695312 11.972656 5.691406 11.890625 5.691406 C 11.25 5.691406 10.644531 5.933594 10.175781 6.367188 C 9.851562 6.203125 9.496094 6.117188 9.128906 6.117188 C 8.464844 6.117188 7.835938 6.40625 7.394531 6.898438 C 7.027344 6.664062 6.601562 6.539062 6.15625 6.539062 C 5.492188 6.539062 4.867188 6.828125 4.429688 7.320312 L 2.503906 6.609375 C 2.285156 6.527344 2.039062 6.636719 1.957031 6.859375 L 1.492188 8.121094 C 1.074219 8.558594 0.847656 9.125 0.847656 9.726562 C 0.847656 9.835938 0.859375 9.949219 0.878906 10.066406 C 0.296875 10.507812 0 11.011719 0 11.570312 C 0 13.179688 1.304688 14.496094 2.976562 14.597656 L 3.925781 15.507812 C 4.441406 16 4.667969 16.296875 5.015625 16.746094 C 5.132812 16.894531 5.257812 17.058594 5.410156 17.25 C 6.546875 18.671875 7.683594 19.28125 9.207031 19.28125 L 14.976562 19.28125 C 16.503906 19.28125 17.636719 18.671875 18.773438 17.25 C 18.925781 17.058594 19.050781 16.894531 19.167969 16.746094 C 19.515625 16.296875 19.746094 16 20.257812 15.507812 L 21.207031 14.597656 C 22.8125 14.492188 24 13.226562 24 11.570312 Z M 13.414062 5.742188 L 13.960938 6.394531 L 13.3125 6.941406 L 12.765625 6.289062 Z M 4.152344 8.121094 L 3.582031 9.667969 L 2.035156 9.097656 L 2.605469 7.550781 Z M 19.671875 14.894531 C 19.113281 15.429688 18.855469 15.765625 18.496094 16.226562 C 18.382812 16.375 18.257812 16.53125 18.113281 16.71875 C 17.140625 17.933594 16.230469 18.429688 14.976562 18.429688 L 9.207031 18.429688 C 7.953125 18.429688 7.046875 17.933594 6.074219 16.71875 C 5.925781 16.53125 5.800781 16.371094 5.6875 16.226562 C 5.332031 15.765625 5.074219 15.429688 4.515625 14.894531 L 4.117188 14.511719 C 4.246094 14.484375 4.375 14.449219 4.5 14.410156 C 4.535156 14.398438 4.570312 14.386719 4.605469 14.375 C 4.699219 14.34375 4.789062 14.308594 4.875 14.269531 C 4.910156 14.253906 4.941406 14.242188 4.976562 14.226562 C 5.203125 14.121094 5.414062 13.996094 5.601562 13.851562 C 5.628906 13.832031 5.65625 13.808594 5.679688 13.789062 C 5.75 13.734375 5.8125 13.675781 5.875 13.617188 C 5.898438 13.59375 5.921875 13.570312 5.945312 13.546875 C 6.023438 13.464844 6.097656 13.382812 6.164062 13.292969 C 6.746094 14.078125 7.859375 14.609375 9.136719 14.609375 C 10.414062 14.609375 11.53125 14.078125 12.109375 13.292969 C 12.691406 14.078125 13.804688 14.609375 15.082031 14.609375 C 16.355469 14.609375 17.46875 14.082031 18.046875 13.304688 C 18.113281 13.390625 18.1875 13.476562 18.265625 13.554688 C 18.285156 13.578125 18.308594 13.601562 18.332031 13.621094 C 18.394531 13.683594 18.457031 13.742188 18.527344 13.796875 C 18.550781 13.816406 18.574219 13.835938 18.597656 13.855469 C 18.785156 13.996094 18.996094 14.125 19.226562 14.230469 C 19.253906 14.242188 19.285156 14.253906 19.316406 14.269531 C 19.40625 14.308594 19.5 14.34375 19.597656 14.378906 C 19.628906 14.386719 19.660156 14.398438 19.691406 14.40625 C 19.816406 14.445312 19.941406 14.484375 20.074219 14.511719 Z M 21.011719 13.757812 C 19.613281 13.753906 18.480469 12.992188 18.480469 12.0625 C 18.480469 11.824219 18.289062 11.636719 18.054688 11.636719 C 17.820312 11.636719 17.628906 11.824219 17.628906 12.0625 C 17.628906 12.980469 16.464844 13.757812 15.082031 13.757812 C 13.699219 13.757812 12.535156 12.980469 12.535156 12.0625 C 12.535156 11.824219 12.34375 11.636719 12.109375 11.636719 C 11.875 11.636719 11.683594 11.824219 11.683594 12.0625 C 11.683594 12.980469 10.519531 13.757812 9.136719 13.757812 C 7.753906 13.757812 6.589844 12.980469 6.589844 12.0625 C 6.589844 11.824219 6.398438 11.636719 6.164062 11.636719 C 5.929688 11.636719 5.738281 11.824219 5.738281 12.0625 C 5.738281 12.980469 4.574219 13.757812 3.160156 13.757812 C 1.886719 13.757812 0.847656 12.777344 0.847656 11.570312 C 0.847656 11.246094 1.097656 10.921875 1.585938 10.605469 C 1.742188 10.503906 1.816406 10.3125 1.765625 10.132812 C 1.738281 10.042969 1.722656 9.960938 1.710938 9.882812 L 3.683594 10.613281 C 3.734375 10.632812 3.78125 10.640625 3.832031 10.640625 C 4.003906 10.640625 4.167969 10.535156 4.230469 10.363281 L 5.097656 8.019531 C 5.117188 7.960938 5.125 7.898438 5.117188 7.839844 C 5.394531 7.558594 5.761719 7.390625 6.15625 7.390625 C 6.542969 7.390625 6.90625 7.539062 7.1875 7.808594 C 7.28125 7.898438 7.410156 7.941406 7.539062 7.921875 C 7.671875 7.90625 7.785156 7.828125 7.847656 7.714844 C 8.121094 7.246094 8.601562 6.964844 9.132812 6.964844 C 9.441406 6.964844 9.742188 7.0625 10 7.253906 C 10.183594 7.382812 10.4375 7.351562 10.578125 7.175781 C 10.902344 6.777344 11.371094 6.550781 11.867188 6.542969 L 12.9375 7.8125 C 13.019531 7.910156 13.140625 7.964844 13.261719 7.964844 C 13.359375 7.964844 13.457031 7.929688 13.535156 7.863281 L 14.597656 6.96875 C 14.617188 6.96875 14.632812 6.964844 14.652344 6.964844 C 15.183594 6.964844 15.664062 7.246094 15.933594 7.714844 C 16 7.828125 16.113281 7.90625 16.242188 7.921875 C 16.375 7.941406 16.503906 7.898438 16.597656 7.808594 C 16.875 7.539062 17.242188 7.390625 17.625 7.390625 C 18.246094 7.390625 18.804688 7.785156 19.015625 8.378906 C 19.0625 8.507812 19.167969 8.605469 19.300781 8.640625 C 19.433594 8.679688 19.574219 8.652344 19.679688 8.566406 C 19.949219 8.351562 20.269531 8.238281 20.597656 8.238281 C 21.417969 8.238281 22.082031 8.90625 22.082031 9.726562 C 22.082031 9.828125 22.074219 9.929688 22.046875 10.042969 C 22.007812 10.222656 22.089844 10.40625 22.25 10.5 C 22.847656 10.84375 23.152344 11.203125 23.152344 11.570312 C 23.152344 12.8125 22.230469 13.753906 21.011719 13.757812 Z M 21.011719 13.757812"/>
</svg>

<svg xmlns="http://www.w3.org/2000/svg" width="32" height="32" viewBox="0 0 24 24">
    <path d="M8.57 8.41a.423.423 0 0 0-.593.086L6.965 9.863a.421.421 0 0 0 .09.594l1.363 1.012a.428.428 0 0 0 .254.082c.02 0 .043-.004.062-.004a.44.44 0 0 0 .278-.168l1.011-1.367a.425.425 0 0 0-.09-.594zm.012 2.121l-.684-.504.508-.683.68.504zm0 0M21.379 9.617l-1.664-.332a.423.423 0 0 0-.5.332l-.332 1.668a.423.423 0 0 0 .332.5l1.668.332a.422.422 0 0 0 .496-.332l.336-1.668a.429.429 0 0 0-.336-.5zm-.746 1.582l-.836-.164.168-.832.832.164zm0 0M16.371 10.387a.426.426 0 0 0-.527-.293l-1.633.46a.422.422 0 0 0-.293.524l.46 1.637a.425.425 0 0 0 .524.293l1.637-.461a.425.425 0 0 0 .293-.524zm-1.289 1.687l-.23-.816.816-.23.23.816zm0 0"/>
    <path d="M24 11.57c0-.62-.363-1.175-1.078-1.652.008-.066.012-.129.012-.191a2.34 2.34 0 0 0-2.336-2.336c-.356 0-.696.078-1.012.234a2.334 2.334 0 0 0-1.961-1.086c-.445 0-.871.125-1.238.36a2.356 2.356 0 0 0-1.543-.774l-1.051-1.254a.427.427 0 0 0-.484-.117.57.57 0 0 0-.118.066l-.757.64-.293.247a1.828 1.828 0 0 0-.25-.016c-.641 0-1.246.243-1.715.676a2.31 2.31 0 0 0-1.047-.25c-.664 0-1.293.29-1.734.781a2.291 2.291 0 0 0-1.239-.359c-.664 0-1.289.29-1.726.781l-1.926-.71a.424.424 0 0 0-.547.25L1.492 8.12a2.306 2.306 0 0 0-.644 1.606c0 .109.011.222.03.34-.581.44-.878.945-.878 1.503 0 1.61 1.305 2.926 2.977 3.028l.949.91c.515.492.742.789 1.09 1.238.117.149.242.313.394.504 1.137 1.422 2.274 2.031 3.797 2.031h5.77c1.527 0 2.66-.61 3.796-2.031.153-.191.278-.355.395-.504.348-.45.578-.746 1.09-1.238l.949-.91C22.812 14.492 24 13.227 24 11.57zM13.414 5.742l.547.653-.649.546-.546-.652zm-9.262 2.38l-.57 1.546-1.547-.57.57-1.547zm15.52 6.773c-.559.535-.817.87-1.176 1.332-.113.148-.238.304-.383.492-.972 1.215-1.883 1.71-3.136 1.71h-5.77c-1.254 0-2.16-.495-3.133-1.71l-.386-.492c-.356-.461-.614-.797-1.172-1.332l-.399-.383c.13-.028.258-.063.383-.102l.105-.035a2.76 2.76 0 0 0 .27-.105c.035-.016.066-.028.102-.043.226-.106.437-.23.625-.375.027-.02.054-.043.078-.063.07-.055.133-.113.195-.172l.07-.07c.078-.082.153-.164.22-.254.581.785 1.694 1.316 2.972 1.316 1.277 0 2.394-.53 2.972-1.316.582.785 1.696 1.316 2.973 1.316 1.273 0 2.387-.527 2.965-1.304a2.637 2.637 0 0 0 .285.316c.063.063.125.121.195.176l.07.058c.188.141.4.27.63.375.027.012.058.024.09.04.09.039.183.074.28.109.032.008.063.02.094.027.125.04.25.078.383.106zm1.34-1.137c-1.399-.004-2.532-.766-2.532-1.695a.424.424 0 0 0-.425-.426.424.424 0 0 0-.426.425c0 .918-1.164 1.696-2.547 1.696-1.383 0-2.547-.778-2.547-1.695a.424.424 0 0 0-.426-.426.424.424 0 0 0-.425.425c0 .918-1.164 1.696-2.547 1.696-1.383 0-2.547-.778-2.547-1.695a.424.424 0 0 0-.426-.426.424.424 0 0 0-.426.425c0 .918-1.164 1.696-2.578 1.696-1.273 0-2.312-.98-2.312-2.188 0-.324.25-.648.738-.965a.427.427 0 0 0 .18-.472 1.71 1.71 0 0 1-.055-.25l1.973.73a.424.424 0 0 0 .547-.25l.867-2.343a.406.406 0 0 0 .02-.18 1.46 1.46 0 0 1 1.038-.45c.387 0 .75.15 1.032.419.093.09.222.132.351.113a.405.405 0 0 0 .309-.207 1.48 1.48 0 0 1 1.285-.75c.308 0 .61.098.867.289a.426.426 0 0 0 .578-.078 1.692 1.692 0 0 1 1.29-.633l1.07 1.27a.427.427 0 0 0 .324.152.424.424 0 0 0 .273-.102l1.063-.894c.02 0 .035-.004.054-.004a1.47 1.47 0 0 1 1.282.75c.066.113.18.191.308.207a.421.421 0 0 0 .356-.113 1.471 1.471 0 0 1 2.418.57.416.416 0 0 0 .285.262c.133.039.273.011.379-.075.27-.214.59-.328.918-.328a1.487 1.487 0 0 1 1.449 1.805c-.04.18.043.363.203.457.598.344.902.703.902 1.07 0 1.242-.922 2.184-2.14 2.188zm0 0"/>
</svg>
